!!!OTL: I HA DAHEIM EN MAIDLI
!!!ARE: Europa, Mitteleuropa, Schweiz
!!!SCT: E0556
!!!YEM: Copyright 1995, estate of Helmut Schaffrath.
**kern
*ICvox
*Ivox
*M2/4
*k[]
*C:
{8G
=1
8A
8G
8F
8D
=2
8E
8G
8c}
{8G
=3
8G
8f
8A
8B
=4
4c
8r}
{8G
=5
8A
8G
8F
8D
=6
8E
8G
8c}
{8G
=7
8f
8d
8A
8B
=8
4c
8r}
{8e
=9
8.e
16d
8d
8e
=10
8d
8c
8c}
{8d
=11
8c
8B
8A
8B
=12
8d
8c
8c}
{16f
16e
=13
8c#
8d
8d
16e
16d
=14
8B
8c
8c}
{16e
16c
=15
8B
8G
8A
8B
=16
4c
8r}
==
!!!AGN: Liebes - Lied
!!!ONB: ESAC (Essen Associative Code) Database: ERK1
!!!AMT: simple duple
!!!AIN: vox
!!!EED: Helmut Schaffrath
!!!EEV: 1.0
*-
